X:1
T:Title
L:1/8
M:6/8
K:D
V:1 treble nm="Grand Piano"
V:1
 z3 z2[Q:1/4=100] A, | A,2 D F2 F | F2 =F G2 ^F | E2 ^D F3 | E3- E2 A, | A,2 C E2 E | E2 E F2 E | %7
 D2 C E3 | D3- D2 A, | A,2 D F2 F | F2 =F G2 ^F | E2 ^D F2 E | E3- E2 A, | A,2 C E2 E | E2 E F2 E | %15
 D2 C E2 D |[M:5/8] D-D- D3 |[M:1/8] G |[M:3/4] A2 d d2 c | c2 B d3 | G4- GG | G2 c c2 B | %22
 B2 A c3 | F4- FA | A2 d d2 c | c2 B d3 | G4- GG | G2 c c2 B | B2 A c3 | F4- FB | B2 A A2 G | %31
 G2 F ^D2 F | E6 | A4- AA | A2 G F2 E | D2 C E3 | D6 |] %37

